svgs/screen_master.svg

<svg width="192" height="192" viewBox="0 0 192 192" fill="none" xmlns="http://www.w3.org/2000/svg">
<path d="M22 40.4041H41.171M153.13 135.492V40.4041H41.171M41.171 40.4041V22M41.171 54.2073V151.596H153.13M170 151.596H153.13M153.13 151.596V170" stroke="black" stroke-width="12" stroke-linecap="round" stroke-linejoin="round"/>
<path d="M117 59L132 74" stroke="black" stroke-width="12" stroke-linecap="round" stroke-linejoin="round"/>
<path d="M73.7316 98.6878L107.195 65.2247L125.162 83.1922L91.6991 116.655M73.7316 98.6878L91.6991 116.655M73.7316 98.6878L68.8924 116.5M91.6991 116.655L74.5 122.371M68.8924 116.5L66.5827 125.002L74.5 122.371M68.8924 116.5L74.5 116.5V122.371" stroke="black" stroke-width="8" stroke-linecap="round" stroke-linejoin="round"/>
</svg>

<svg width="192" height="192" viewBox="0 0 192 192" fill="none" xmlns="http://www.w3.org/2000/svg"><path d="M22 40.404h19.171m111.959 95.088V40.404H41.171m0 0V22m0 32.207v97.389H153.13m16.87 0h-16.87m0 0V170M117 59l15 15" stroke="#000" stroke-width="12" stroke-linecap="round" stroke-linejoin="round"/><path d="m73.732 98.688 33.463-33.463 17.967 17.967-33.463 33.463M73.732 98.688l17.967 17.967M73.732 98.688l-4.84 17.812m22.807.155L74.5 122.371m-5.608-5.871-2.31 8.502 7.918-2.631m-5.608-5.871H74.5v5.871" stroke="#000" stroke-width="8" stroke-linecap="round" stroke-linejoin="round"/></svg>
